X:1
T:The Beggarman
M:6/8
L:1/4
K:C
 G3/2| c3/2 c c/2| c3/2 d c/2| B G/2 G G/2| G3/2 B c/2| d3/2 G A/2|\
 G3/2 c d/2| e3/2 c3/2| c3/2 c- B/2| A ^G/2 A B/2| c d/2 c A/2| G A/2 G E/2|\
 G3/2 E F/2| G G/2 G G/2| G A/2 G F/2| E3/2 C3/2| C3/2||
